X:1
T: Miss Douglas
C:
R:Reel
Q: 232
K:D
M:4/4
L:1/8
|:f|d2 Af d2 Ad|cd ef gf ge|fd cd Ad Fd|Eg fe fd df|
d2 Af d2 Ad|cd ef gf ge|fd cd Ad Fd|Eg fe fd df|
de fg ab af|gf ed ce ef|de fg ab af|ge ag fd df|
de fg ab af|ge fd ce eg|fd cd Ad Fd|Eg fe fd d:|
